!!!COM: Mozart, Wolfgang Amadeus
!!!OTL: Musikalische Würfelspiele, Kontre-Tänze
!!!SCA: K<sup>6</sup> Anh. C30.01 (K<sup>3</sup> Anh. 294d)
**kern	**kern
*staff2	*staff2
*clefF4	*clefG2
*M2/4	*M2/4
*MM110	*MM110
*>[A,A1,A,A2,B]	*>[A,A1,A,A2,B]
*>norep[A,A2,B]	*>norep[A,A2,B]
*>A	*>A
=165	=165
4C	8cc
.	16ee
.	16cc
4r	8g
.	8g
=45	=45
16C	8gg
16D	.
16C	8ccc
16BB	.
16C	8gg
16D	.
16E	8ee
16C	.
=8	=8
4GG	8dd
.	8ff
4GG	8b
.	8dd
=158	=158
4C	16cc
.	16dd
.	16ee
.	16ff
4CC	16gg
.	16ee
.	16dd
.	16cc
=82	=82
16D	4dd
16F#	.
16A	.
16G	.
16F#	8dd
16D	.
16E	8dd
16F#	.
=153	=153
4G	16gg
.	16aa
.	16bb
.	16ccc
4GG	16ddd
.	16bb
.	16aa
.	16gg
=137	=137
4C	8ee
.	8ccc
4D	16bb
.	16aa
.	16gg
.	16ff#
=16	=16
*>A1	*>A1
4GG	4g 4b 4gg
16G	4r
16F	.
16E	.
16D	.
=16:|!	=16:|!
*>A2	*>A2
4GG	4g 4b 4gg
16GG	4r
16AA	.
16BB	.
16C#	.
=66||	=66||
*>B	*>B
4D	8ff#
.	16ff#
.	16aa
4D	8ddd
.	16aa
.	16ff#
=55	=55
16BB	8gg
16D	.
16G	8gg
16D	.
8BB	8bb
8BB	8gg
=26	=26
4C	8ee
.	8cc
4C	8gg
.	8ee
=126	=126
4GG	8b
.	8dd
16G	4g
16F	.
16E	.
16D	.
=128	=128
16C	8g
16G	.
16E	4cc
16G	.
16C	.
16G	.
16E	8ee
16G	.
=32	=32
4C	8ccc
.	8gg
4r	8ee
.	8cc
=129	=129
4G	8ff
.	8dd
4GG	8b
.	8g
=65	=65
4C	8cc
.	8cc
4CC	4cc
==	==
*-	*-
